svgs/regular/object-union.svg

<svg xmlns="http://www.w3.org/2000/svg" viewBox="0 0 512 512"><!--! Font Awesome Pro 6.6.0 by @fontawesome - https://fontawesome.com License - https://fontawesome.com/license (Commercial License) Copyright 2024 Fonticons, Inc. --><path d="M160 304c26.5 0 48 21.5 48 48l0 96c0 8.8 7.2 16 16 16l224 0c8.8 0 16-7.2 16-16l0-224c0-8.8-7.2-16-16-16l-96 0c-26.5 0-48-21.5-48-48l0-96c0-8.8-7.2-16-16-16L64 48c-8.8 0-16 7.2-16 16l0 224c0 8.8 7.2 16 16 16l96 0zm-48 48l-48 0c-35.3 0-64-28.7-64-64L0 64C0 28.7 28.7 0 64 0L288 0c35.3 0 64 28.7 64 64l0 48 0 48 48 0 48 0c35.3 0 64 28.7 64 64l0 224c0 35.3-28.7 64-64 64l-224 0c-35.3 0-64-28.7-64-64l0-48 0-48-48 0z"/></svg>

<svg xmlns="http://www.w3.org/2000/svg" viewBox="0 0 512 512"><!--! Font Awesome Pro 6.4.0 by @fontawesome - https://fontawesome.com License - https://fontawesome.com/license (Commercial License) Copyright 2023 Fonticons, Inc. --><path d="M160 304c26.5 0 48 21.5 48 48v96c0 8.8 7.2 16 16 16H448c8.8 0 16-7.2 16-16V224c0-8.8-7.2-16-16-16H352c-26.5 0-48-21.5-48-48V64c0-8.8-7.2-16-16-16H64c-8.8 0-16 7.2-16 16V288c0 8.8 7.2 16 16 16h96zm-48 48H64c-35.3 0-64-28.7-64-64V64C0 28.7 28.7 0 64 0H288c35.3 0 64 28.7 64 64v48 48h48 48c35.3 0 64 28.7 64 64V448c0 35.3-28.7 64-64 64H224c-35.3 0-64-28.7-64-64V400 352H112z"/></svg>
